X:1
T:#8 - Kreutzer 42 Studies for the Violin
T:L'art de l'archet el arte de arco 
T:Giuseppe Tartini (1692-1770) 
T:Variación 3
C:Giuseppe Tartini
L:1/8
Q:1/4=70
M:4/4
K:F
V:1 treble nm="Violin" snm="Vln."
V:1
"^2"!<(! (uc!<)! | %1
!f! !wedge!f)!sfz!{/g} Tf2{ef} g/(!wedge!a/ !wedge!g)!sfz!{/g} (Tg2{fg} a/)(!wedge!b/ | %2
 !wedge!a)!sfz!{/b} (Ta2 g/)(!wedge!f/ !wedge!g)"^1"!sfz! (c2 c'/)(!wedge!g/ | %3
 !wedge!a)!sfz!{/b} (Ta2{ga} c'/)"^3"(!wedge!a/!sfz! !wedge!g){/a} (Tg2{fg}"^4" c'/)!wedge!g/ | %4
 (f/d/)(e/c/) !wedge!G(Td/>c/) c3 z |"^1"!p! (c | %6
"_dolce" f)(e f/_e/)"^3"!tenuto!d/!tenuto!c/ (Tc/>B/) B2 (^f | %7
 g)(^f g/=f/)"^3"!tenuto!e/!tenuto!d/ (Td/>c/) c2 (=b | %8
 c')(=b c'/_b/)!tenuto!a/!tenuto!g/ (Ta3/4{ga}b/4) c'2"^1"!f! f | %9
{/e} (d/b/)!tenuto!a/!tenuto!g/ (Tg7/4f/4) f2 z2 :| %10

